images/mission/mission-arrow.svg

<svg width="285" height="290" viewBox="0 0 285 290" fill="none" xmlns="http://www.w3.org/2000/svg">
<path fill-rule="evenodd" clip-rule="evenodd" d="M85.0279 79.9512C92.9442 83.7864 100.007 88.3182 106.697 93.1263C117.115 100.623 126.151 109.138 133.948 118.648C142.823 129.485 150.022 141.498 156.07 154.219C162.085 166.893 166.985 180.207 170.726 193.873C171.058 195.093 171.298 196.322 171.735 197.512C171.981 198.175 172.253 198.792 172.56 199.4C165.39 192.661 156.034 182.772 148.508 175.384C143.532 170.515 139.343 166.812 137.646 165.231C137.35 164.922 136.853 164.895 136.526 165.196C136.211 165.475 136.189 165.989 136.485 166.299C137.919 168.143 141.162 172.682 145.538 178.08C149.798 183.342 155.163 189.302 160.118 194.948C166.498 202.214 172.443 208.684 175.639 211.488C176.065 211.855 176.56 212.07 176.796 212.435C177.852 214.011 178.473 213.946 178.988 214.625C180.229 215.603 181.311 214.784 182.362 214.708C184.337 214.572 185.53 212.631 186.185 210.262C186.633 208.61 185.564 205.025 185.713 203.121C186.201 196.174 186.571 189.148 186.415 182.123C186.297 175.82 185.841 169.521 185.137 163.274C184.667 159.085 183.993 154.972 183.314 150.843C183.179 150.506 183.184 150.128 182.933 149.843C181.586 148.237 181.458 148.97 179.673 147.866C179.652 147.665 179.463 147.531 179.28 147.547C179.078 147.567 178.939 147.738 178.96 147.939C177.433 149.375 177.169 148.717 176.18 150.581C176.019 150.872 176.079 151.212 176.008 151.552C176.379 159.982 176.21 168.492 176.112 177.056C176.071 179.663 176.047 182.265 176.006 184.871C173.168 173.559 169.525 162.46 164.753 151.948C160.678 142.947 155.814 134.343 150.086 126.4C140.607 113.199 128.998 101.494 114.776 92.5524C105.913 86.9962 96.046 82.7254 85.2458 79.3997C85.0818 79.3529 84.9129 79.4202 84.8436 79.5718C84.7966 79.7357 84.8639 79.9044 85.0279 79.9512Z" fill="#FF5100"/>
</svg>

<svg width="285" height="290" fill="none" xmlns="http://www.w3.org/2000/svg"><path fill-rule="evenodd" clip-rule="evenodd" d="M85.028 79.951c7.916 3.835 14.979 8.367 21.669 13.175 10.418 7.497 19.454 16.012 27.251 25.522 8.875 10.837 16.074 22.85 22.122 35.571 6.015 12.674 10.915 25.988 14.656 39.654.332 1.22.572 2.449 1.009 3.639.246.663.518 1.28.825 1.888-7.17-6.739-16.526-16.628-24.052-24.016-4.976-4.869-9.165-8.572-10.862-10.153a.8.8 0 00-1.12-.035.779.779 0 00-.041 1.103c1.434 1.844 4.677 6.383 9.053 11.781 4.26 5.262 9.625 11.222 14.58 16.868 6.38 7.266 12.325 13.736 15.521 16.54.426.367.921.582 1.157.947 1.056 1.576 1.677 1.511 2.192 2.19 1.241.978 2.323.159 3.374.083 1.975-.136 3.168-2.077 3.823-4.446.448-1.652-.621-5.237-.472-7.141.488-6.947.858-13.973.702-20.998-.118-6.303-.574-12.602-1.278-18.849-.47-4.189-1.144-8.302-1.823-12.431-.135-.337-.13-.715-.381-1-1.347-1.606-1.475-.873-3.26-1.977a.366.366 0 00-.393-.319.351.351 0 00-.32.392c-1.527 1.436-1.791.778-2.78 2.642-.161.291-.101.631-.172.971.371 8.43.202 16.94.104 25.504-.041 2.607-.065 5.209-.106 7.815-2.838-11.312-6.481-22.411-11.253-32.923-4.075-9.001-8.939-17.605-14.667-25.548-9.479-13.201-21.088-24.906-35.31-33.848-8.863-5.556-18.73-9.827-29.53-13.152-.164-.047-.333.02-.402.172-.047.164.02.332.184.38z" fill="#FF5100"/></svg>
